app/ui/images/clock.svg

<?xml version="1.0" encoding="UTF-8"?>
<svg width="19px" height="19px" viewBox="0 0 19 19" version="1.1" xmlns="http://www.w3.org/2000/svg" xmlns:xlink="http://www.w3.org/1999/xlink">
    <!-- Generator: Sketch 46.2 (44496) - http://www.bohemiancoding.com/sketch -->
    <title>clock</title>
    <desc>Created with Sketch.</desc>
    <defs></defs>
    <g id="Page-1" stroke="none" stroke-width="1" fill="none" fill-rule="evenodd" fill-opacity="0.374858469" opacity="0.661345109">
        <g id="Address" transform="translate(-925.000000, -441.000000)" fill-rule="nonzero" fill="#646761">
            <g id="content" transform="translate(108.000000, 190.000000)">
                <g id="transaction" transform="translate(12.000000, 251.000000)">
                    <g id="time" transform="translate(805.000000, 0.000000)">
                        <path d="M9.49025641,19 C11.9326496,19 14.3490598,18.0658928 16.2198291,16.2236258 C18.0126496,14.4332537 19,12.0460908 19,9.50324343 C19,6.96039604 18.0126496,4.57323319 16.2198291,2.78286104 C12.5042735,-0.927620348 6.47623932,-0.927620348 2.78666667,2.78286104 C-0.928888889,6.49334244 -0.928888889,12.5131444 2.78666667,16.1976784 C4.63145299,18.0658928 7.04786325,19 9.49025641,19 Z M4.19018405,4.19287469 C7.11042945,1.26904177 11.8711656,1.26904177 14.791411,4.19287469 C16.2147239,5.61793612 17,7.50982801 17,9.5 C17,11.490172 16.2147239,13.3820639 14.791411,14.8071253 C11.8711656,17.7309582 7.11042945,17.7309582 4.19018405,14.8071253 C1.26993865,11.8832924 1.26993865,7.11670762 4.19018405,4.19287469 Z M8.81818182,12 L13.1818182,12 C13.6454545,12 14,11.65 14,11.1923077 C14,10.7346154 13.6454545,10.3846154 13.1818182,10.3846154 L9.63636364,10.3846154 L9.63636364,5.80769231 C9.63636364,5.35 9.28181818,5 8.81818182,5 C8.35454545,5 8,5.35 8,5.80769231 L8,11.1923077 C8,11.65 8.35454545,12 8.81818182,12 Z" id="clock"></path>
                    </g>
                </g>
            </g>
        </g>
    </g>
</svg>

<svg width="19" height="19" xmlns="http://www.w3.org/2000/svg"><path d="M9.49 19a9.553 9.553 0 0 0 6.73-2.776A9.433 9.433 0 0 0 19 9.504c0-2.544-.987-4.93-2.78-6.721-3.716-3.71-9.744-3.71-13.433 0-3.716 3.71-3.716 9.73 0 13.415A9.369 9.369 0 0 0 9.49 19zM4.19 4.193c2.92-2.924 7.681-2.924 10.601 0a7.48 7.48 0 0 1 0 10.614c-2.92 2.924-7.68 2.924-10.6 0-2.921-2.924-2.921-7.69 0-10.614zM8.818 12h4.364c.463 0 .818-.35.818-.808a.798.798 0 0 0-.818-.807H9.636V5.808A.798.798 0 0 0 8.818 5 .798.798 0 0 0 8 5.808v5.384c0 .458.355.808.818.808z" fill-rule="nonzero" fill="#646761" fill-opacity=".375" opacity=".661"/></svg>
